X:1
T:Quatour pour de fin du temps
T:Louange à Immortalité de Jesus
T:Quatour pour de fin du temps
T:VIII. Louange à L'Immortalité de Jesus
T:Olivier Messiaen
T:Violon
C:Olivier Messiaen
L:1/8
Q:1/8=36
M:4/4
K:E
V:1 treble nm="Violino" snm="Vln."
V:1
"^Extremement lent et tendre, extatique ( env. )" z!p! (vB"_expresif, paradisiaque" c2-) (3c(B^A) (3(ef=f) | %1
 B2 (^AG) (A2 B2) | (3(GB=d) ^A6 | z (=A B2-) (3B(AG) (3(=de^d) | =A2 (GF) (G2 A2) | %5
 (3(FA=c)!<(! !courtesy!^G6!<)! |!mf! (3(E"^sur le Sol""_avec amour"=G_B) (!>!^F E2) (!>!F2 E-) | %7
 (3E(=G_B) (!>!^F!<(! E2)"^sur le Ré" !tenuto!f2 (!tenuto!e-!<)! | %8
!pp! e=B-)"_cresc." (3B(=c^c- (3c)(=dc- (3c)(=g^a) | (3(e=fe-) (3e(^ac') (3(=g_ag) (3(c'e'^a) | %10
 (3(bc'b) (3(e'=g'c')!<(! (3(=d'e'=f') (3(g'^g'^a')!<)! | %11
!f!!8va(! !>!b' !>!=d''2 !>!b'- b'"_dim."!tenuto!a'!tenuto!=g'!tenuto!f'!8va)! | e'4 ub4- | %13
 vb6!>(! ^f2 | e4 B4!>)! | z!pp! (B c2-) (3c(B^A) (3(ef=f) | B2"_peu à peu" (^AG) (A2 B2) | %17
 (3(GB=d) ^A6 | z (=A B2-) (3B(AG) (3(=de^d) | =A2 (GF) (G2 A2) | (3(FA=c)!<(! !courtesy!^G6!<)! | %21
!mf! (3(E"^sur le Sol""_avec amour"=G_B) (!>!^F E2) (!>!F2 E-) | %22
 (3E(=G_B) (!>!^F!<(! E2)"^sur le Ré" (!tenuto!f2 !tenuto!e-!<)! | %23
!pp! e^G-)"_cresc." (3G(A^A- (3A)(BA (3A)(e=g) | (3(c=dc- (3c)(=g^a) (3(e=fe) (3(^a^c'=g) | %25
 (3(^g^ag) (3(^c'=f'=b) (3(^c'=d'e') (3(=f'=g'^g') | %26
!f!!8va(! a'"_cresc." (ug'2 f'-) (3f'"^un peu ralenti"!<(!!tenuto!g'!tenuto!a' (3!tenuto!b'!tenuto!=c''!tenuto!^c''!<)! | %27
!ff! !>!vc''4"^Au mouvt." ub'4- | %28
 b'"_sempre dim." !tenuto!e'2 !tenuto!^a'2 !tenuto!b'2 !tenuto!c''- | c''2!>(! e'4 ^a'2!>)! | %30
!ppp! v!open!ue''8- | !fermata!v!open!e''4!8va)! z4 |] %32

